storage/app/icons/tabler/filled/bed.svg

<!--
version: "2.9"
unicode: "f7e0"
-->
<svg
  xmlns="http://www.w3.org/2000/svg"
  width="24"
  height="24"
  viewBox="0 0 24 24"
  fill="currentColor"
>
  <path d="M3 6a1 1 0 0 1 .993 .883l.007 .117v6h6v-5a1 1 0 0 1 .883 -.993l.117 -.007h8a3 3 0 0 1 2.995 2.824l.005 .176v8a1 1 0 0 1 -1.993 .117l-.007 -.117v-3h-16v3a1 1 0 0 1 -1.993 .117l-.007 -.117v-11a1 1 0 0 1 1 -1z" />
  <path d="M7 8a2 2 0 1 1 -1.995 2.15l-.005 -.15l.005 -.15a2 2 0 0 1 1.995 -1.85z" />
</svg>

<svg xmlns="http://www.w3.org/2000/svg" width="24" height="24" fill="currentColor" viewBox="0 0 24 24"><path d="M3 6a1 1 0 0 1 .993.883L4 7v6h6V8a1 1 0 0 1 .883-.993L11 7h8a3 3 0 0 1 2.995 2.824L22 10v8a1 1 0 0 1-1.993.117L20 18v-3H4v3a1 1 0 0 1-1.993.117L2 18V7a1 1 0 0 1 1-1"/><path d="M7 8a2 2 0 1 1-1.995 2.15L5 10l.005-.15A2 2 0 0 1 7 8"/></svg>
